src/assets/svg/icons/fa/nuevos/classic/light/turkish-lira-sign classic light.svg

<svg xmlns="http://www.w3.org/2000/svg" viewBox="0 0 384 512"><path d="M80 32C88.84 32 96 39.16 96 48V125.1L251.6 80.62C260.1 78.19 268.1 83.11 271.4 91.6C273.8 100.1 268.9 108.1 260.4 111.4L96 158.4V221.1L251.6 176.6C260.1 174.2 268.1 179.1 271.4 187.6C273.8 196.1 268.9 204.1 260.4 207.4L96 254.4V448H191.2C276.1 448 347.5 380.4 351 294.7L352 271.3C352.4 262.5 359.8 255.6 368.7 256C377.5 256.4 384.4 263.8 383.1 272.7L383 295.1C378.7 398.8 294.1 480 191.2 480H80C71.16 480 64 472.8 64 464V263.5L36.4 271.4C27.9 273.8 19.04 268.9 16.62 260.4C14.19 251.9 19.11 243 27.6 240.6L64 230.2V167.5L36.4 175.4C27.9 177.8 19.04 172.9 16.62 164.4C14.19 155.9 19.11 147 27.6 144.6L64 134.2V48C64 39.16 71.16 32 80 32V32z"/></svg>

<svg xmlns="http://www.w3.org/2000/svg" viewBox="0 0 384 512"><!--! Font Awesome Pro 6.4.0 by @fontawesome - https://fontawesome.com License - https://fontawesome.com/license (Commercial License) Copyright 2023 Fonticons, Inc. --><path d="M80 32c8.8 0 16 7.2 16 16v77.1L251.6 80.6c8.5-2.4 17.4 2.5 19.8 11s-2.5 17.4-11 19.8L96 158.4v62.7l155.6-44.5c8.5-2.4 17.4 2.5 19.8 11s-2.5 17.4-11 19.8L96 254.4V448h95.2C277 448 347.5 380.4 351 294.7l1-23.3c.4-8.8 7.8-15.7 16.7-15.3s15.7 7.8 15.3 16.7L383 296c-4.3 102.8-88.9 184-191.8 184H80c-8.8 0-16-7.2-16-16V263.5l-27.6 7.9c-8.5 2.4-17.4-2.5-19.8-11s2.5-17.4 11-19.8L64 230.2V167.5l-27.6 7.9c-8.5 2.4-17.4-2.5-19.8-11s2.5-17.4 11-19.8L64 134.2V48c0-8.8 7.2-16 16-16z"/></svg>
